X:2622
T:Captain Jinks
R:slide
D:Chieftains Live
Z:id:hn-slide-11
M:6/8
K:D
f2A ABA|B2A ded|c2B BAB|g2g f2e|
f2A ABA|B2A ded|c2c cBc|1 d3 d2e:|2 d3 def||
|:g2g gfe|f2f fed|Bee efe|d2B BAB|
g2g gfe|f2f fed|Bcd efa|1 b3 a2f:|2 b3 a2g||


